X:199
T:The Morpeth rant
R:Reel
O:England
B:New England Fiddler's Repertoire
B:Fiddler's Fakebook
S:My arrangement from various sources
Z:Transcription, arrangement, chords:Mike Long
M:C|
L:1/8
K:D
(3(ABc)|\
"D"d2AG FDFA|"G"BGBd "A"cAce|"D"f2fd "(G)"gfed|\
"A"c2e2 e2 (3(ABc)|"D"d2AG FDFA|
"G"BGBd "A"cAce|"D"dfaf "A"gfed|"D"A2d2 d2:|\
|: A2|\
"D"dfaf dfaf|"G"gfef g2 ef|
"A"gfed cdeg|"D"fede f2 fe|\
"D"dfaf dfaf|"G"gfef g2ef|"A"gfed caag|"D"f2 d2 d2:|
